Sources/FrostedUI/Resources/Icons.xcassets/link20.imageset/link-20.svg

<svg width="20" height="20" viewBox="0 0 20 20" fill="none" xmlns="http://www.w3.org/2000/svg" data-fui-icon="true">
  <path
    d="M5.25098 7.93848C5.54387 7.64558 6.01863 7.64558 6.31152 7.93848C6.60442 8.23137 6.60442 8.70613 6.31152 8.99902L3.47168 11.8398C2.84983 12.4617 2.5 13.3051 2.5 14.1846C2.50023 16.0155 3.98447 17.4998 5.81543 17.5C6.69485 17.5 7.53831 17.1502 8.16016 16.5283L11.001 13.6885C11.2939 13.3956 11.7686 13.3956 12.0615 13.6885C12.3544 13.9814 12.3544 14.4561 12.0615 14.749L9.22168 17.5898C8.31853 18.493 7.09268 19 5.81543 19C3.15605 18.9998 1.00023 16.844 1 14.1846C1 12.9073 1.50701 11.6815 2.41016 10.7783L5.25098 7.93848ZM12.7197 6.21973C13.0126 5.92683 13.4874 5.92683 13.7803 6.21973C14.0732 6.51262 14.0732 6.98738 13.7803 7.28027L7.28027 13.7803C6.98738 14.0732 6.51262 14.0732 6.21973 13.7803C5.92683 13.4874 5.92683 13.0126 6.21973 12.7197L12.7197 6.21973ZM14.1846 1C16.844 1.00023 18.9998 3.15605 19 5.81543C19 7.09268 18.493 8.31853 17.5898 9.22168L14.749 12.0615C14.4561 12.3544 13.9814 12.3544 13.6885 12.0615C13.3956 11.7686 13.3956 11.2939 13.6885 11.001L16.5283 8.16016C17.1502 7.53831 17.5 6.69485 17.5 5.81543C17.4998 3.98447 16.0155 2.50023 14.1846 2.5C13.3051 2.5 12.4617 2.84983 11.8398 3.47168L8.99902 6.31152C8.70613 6.60442 8.23137 6.60442 7.93848 6.31152C7.64558 6.01863 7.64558 5.54387 7.93848 5.25098L10.7783 2.41016C11.6815 1.50701 12.9073 1 14.1846 1Z"
    fill="currentColor"
  />
</svg>

<svg xmlns="http://www.w3.org/2000/svg" width="20" height="20" fill="none" data-fui-icon="true" viewBox="0 0 20 20"><path fill="currentColor" d="M5.251 7.938A.75.75 0 1 1 6.311 9l-2.84 2.84A3.317 3.317 0 0 0 5.816 17.5c.88 0 1.723-.35 2.345-.972l2.841-2.84a.75.75 0 1 1 1.06 1.061l-2.84 2.84a4.817 4.817 0 0 1-6.81-6.81zM12.72 6.22a.75.75 0 1 1 1.06 1.06l-6.5 6.5a.75.75 0 1 1-1.06-1.06zM14.185 1a4.816 4.816 0 0 1 3.405 8.222l-2.841 2.84A.75.75 0 1 1 13.689 11l2.84-2.84a3.316 3.316 0 1 0-4.69-4.69L9 6.312a.75.75 0 1 1-1.06-1.06l2.84-2.84A4.82 4.82 0 0 1 14.184 1"/></svg>
